!!!COM: Haydn, Franz Joseph
!!!OTL: String Quartet in B-flat Major
!!!OPS: Opus 55
!!!ONM: No. 3
!!!OMD: Adagio ma non troppo
!!!OMV: 2
!!!SCT: H III:62
!!!SCA: Thematisch-bibliographisches Werkevererzeichnis (A. van Hoboken)
!!!YOR: Dover Edition; reprint of Eulenburg Edition
!!!ENC: Walter Hewlett
!!!CDT: 1732/3/31/-1809/5/31/
!!!CNT: Oesterreich
!!!YEC: Copyright (c) 1994, 2000 Center for Computer Assisted Research in the Humanities
!!!YEM: Rights to all derivative editions reserved.
!!!YEM: Refer to licensing agreement for further details.
!!!YEN: United States of America
**kern	**dynam	**kern	**dynam	**kern	**dynam	**kern	**dynam
*I:Violoncello	*I:Violoncello	*I:Viola	*I:Viola	*I:Violino II	*I:Violino II	*I:Violino I	*I:Violino I
*>[A,A,B,B,C,C,D,D,E]	*	*>[A,A,B,B,C,C,D,D,E]	*	*>[A,A,B,B,C,C,D,D,E]	*	*>[A,A,B,B,C,C,D,D,E]	*
*>A	*	*>A	*	*>A	*	*>A	*
*clefF4	*	*clefC3	*	*clefG2	*	*clefG2	*
*k[b-e-a-]	*	*k[b-e-a-]	*	*k[b-e-a-]	*	*k[b-e-a-]	*
*E-:	*	*E-:	*	*E-:	*	*E-:	*
*M2/4	*	*M2/4	*	*M2/4	*	*M2/4	*
! Adagio ma non troppo	!	! Adagio ma non troppo	!	! Adagio ma non troppo	!	! Adagio ma non troppo	!
8r	.	8r	.	8r	.	8b-\	f
64ryy	.	64ryy	.	64ryy	.	64ryy	.
64ryy	.	64ryy	.	64ryy	.	64ryy	.
64ryy	.	64ryy	.	64ryy	.	64ryy	.
64ryy	.	64ryy	.	64ryy	.	64ryy	.
64ryy	.	64ryy	.	64ryy	.	64ryy	.
64ryy	.	64ryy	.	64ryy	.	64ryy	.
64ryy	.	64ryy	.	64ryy	.	64ryy	.
64ryy	.	64ryy	.	64ryy	.	64ryy	.
64ryy	.	64ryy	.	64ryy	.	64ryy	.
64ryy	.	64ryy	.	64ryy	.	64ryy	.
64ryy	.	64ryy	.	64ryy	.	64ryy	.
64ryy	.	64ryy	.	64ryy	.	64ryy	.
64ryy	.	64ryy	.	64ryy	.	64ryy	.
64ryy	.	64ryy	.	64ryy	.	64ryy	.
64ryy	.	64ryy	.	64ryy	.	64ryy	.
64ryy	.	64ryy	.	64ryy	.	64ryy	.
64ryy	.	64ryy	.	64ryy	.	64ryy	.
64ryy	.	64ryy	.	64ryy	.	64ryy	.
64ryy	.	64ryy	.	64ryy	.	64ryy	.
64ryy	.	64ryy	.	64ryy	.	64ryy	.
64ryy	.	64ryy	.	64ryy	.	64ryy	.
64ryy	.	64ryy	.	64ryy	.	64ryy	.
64ryy	.	64ryy	.	64ryy	.	64ryy	.
64ryy	.	64ryy	.	64ryy	.	64ryy	.
=1	=1	=1	=1	=1	=1	=1	=1
(4e-\	f	(4g\	f	2b-\	f	(4ee-\	.
8f\L	.	8a-\L	.	.	.	16.dd\LL)	.
.	.	.	.	.	.	32ee-\Jk	.
8e-\J)	.	8g\J)	.	.	.	(16.ee-T\L	.
.	.	.	.	.	.	64dd\LL	.
.	.	.	.	.	.	64ee-\JJJJ)	.
=2	=2	=2	=2	=2	=2	=2	=2
8d'\L	p	8f'\L	p	8b-'\L	p	8ff'\L	p
8d'\J	.	8f'\J	.	8b-'\J	.	8ff'\J	.
4r	.	4r	.	4r	.	8r	.
.	.	.	.	.	.	8b-\	f
=3	=3	=3	=3	=3	=3	=3	=3
(4e-\	f	(4e-\	f	2b-\	f	(4gg\	.
8d\L	.	8f\L	.	.	.	16.ff\LL)	.
.	.	.	.	.	.	32gg\Jk	.
8d-\J)	.	8e-\J)	.	.	.	(16.ggt\L	.
.	.	.	.	.	.	64ff\LL	.
.	.	.	.	.	.	64gg\JJJJ)	.
=4	=4	=4	=4	=4	=4	=4	=4
8c'\L	p	8e-'\L	p	8a-'/L	p	8aa-'\L	p
8c'\J	.	8e-'\J	.	8a-'/J	.	8aa-'\J	.
8r	.	8r	.	8r	.	8r	.
8A-\	f	8c\	f	8e-/	f	8ccc\	f
=5	=5	=5	=5	=5	=5	=5	=5
(4A-\	.	4.B-/	.	(8.f/L	.	(8.dd\L	.
.	.	.	.	32g/LL	.	32ee-\LL	.
.	.	.	.	32a-/JJJ	.	32ff\JJJ	.
8G\L)	.	.	.	8b-/L)	.	8ee-\L)	.
8G\J	.	8B-/	.	8e-/J	.	8b-\J	.
=6	=6	=6	=6	=6	=6	=6	=6
(8F\L	.	(8A-/L	.	(16.d/LL	.	4.b-\	>
.	.	.	.	32en/Jk)	.	.	.
8G\J)	.	8B-/J)	.	(16.et/L	.	.	.
.	.	.	.	64d/LL	.	.	.
.	.	.	.	64e/JJJJ)	.	.	.
[4A-\	>]	(8.c/L	>	(8.f/L	>	.	.
.	.	.	.	.	.	(16a-/LL	.
.	.	16A-/Jk)	]	16e-/Jk)	]	16g/JJ)	]
=7	=7	=7	=7	=7	=7	=7	=7
8A-\L]	p	[2B-/	p	(8d/L	p	(8f/L	p
8G\	.	.	.	16.e-/L	.	16.g/L	.
.	.	.	.	64d/LL	.	64f/LL	.
.	.	.	.	64e-/JJJJ)	.	64g/JJJJ)	.
8D\	.	.	.	8f/L	.	8a-/L	.
8E-\J	.	.	.	&(32e-/LL)	.	&(32g/LL)	.
.	.	.	.	32d/	.	32f/	.
.	.	.	.	32e-/	.	32g/	.
.	.	.	.	32f/JJJ&)	.	32a-/JJJ&)	.
=8	=8	=8	=8	=8	=8	=8	=8
8BB-\L	.	4B-/]	.	(4e-/	.	(4g/	.
8B-\	.	.	.	.	.	.	.
8BB-\J	.	8r	.	8d/)	.	8f/)	.
=:!!:	=:!!:	=:!!:	=:!!:	=:!!:	=:!!:	=:!!:	=:!!:
*>B	*	*>B	*	*>B	*	*>B	*
8r	.	8r	.	8r	.	8ff\	.
64ryy	.	64ryy	.	64ryy	.	64ryy	.
64ryy	.	64ryy	.	64ryy	.	64ryy	.
64ryy	.	64ryy	.	64ryy	.	64ryy	.
64ryy	.	64ryy	.	64ryy	.	64ryy	.
64ryy	.	64ryy	.	64ryy	.	64ryy	.
64ryy	.	64ryy	.	64ryy	.	64ryy	.
64ryy	.	64ryy	.	64ryy	.	64ryy	.
64ryy	.	64ryy	.	64ryy	.	64ryy	.
64ryy	.	64ryy	.	64ryy	.	64ryy	.
64ryy	.	64ryy	.	64ryy	.	64ryy	.
64ryy	.	64ryy	.	64ryy	.	64ryy	.
64ryy	.	64ryy	.	64ryy	.	64ryy	.
64ryy	.	64ryy	.	64ryy	.	64ryy	.
64ryy	.	64ryy	.	64ryy	.	64ryy	.
64ryy	.	64ryy	.	64ryy	.	64ryy	.
64ryy	.	64ryy	.	64ryy	.	64ryy	.
64ryy	.	64ryy	.	64ryy	.	64ryy	.
64ryy	.	64ryy	.	64ryy	.	64ryy	.
64ryy	.	64ryy	.	64ryy	.	64ryy	.
64ryy	.	64ryy	.	64ryy	.	64ryy	.
64ryy	.	64ryy	.	64ryy	.	64ryy	.
64ryy	.	64ryy	.	64ryy	.	64ryy	.
64ryy	.	64ryy	.	64ryy	.	64ryy	.
64ryy	.	64ryy	.	64ryy	.	64ryy	.
=9	=9	=9	=9	=9	=9	=9	=9
8r	.	8r	.	8r	.	[4b-\	.
(8d\L	>	(32g\LLL	.	(32b-/LLL	.	.	.
.	.	32f\	.	32a-/	.	.	.
.	.	32e-\	.	32g/	.	.	.
.	.	32f\JJJ)	.	32a-/JJJ)	.	.	.
8e-\J)	]	8e-\	.	8g/	.	16b-\LL]	.
.	.	.	.	.	.	(16ff#\	.
8r	.	8r	.	8r	.	16gg\	.
.	.	.	.	.	.	16ee-\JJ)	.
=10	=10	=10	=10	=10	=10	=10	=10
8r	.	8r	.	8r	.	4.cc\	.
(8en\L	>	(32a\LLL	.	(32cc/LLL	.	.	.
.	.	32g\	.	32b-/	.	.	.
.	.	32f\	.	32an/	.	.	.
.	.	32g\JJJ)	.	32b-/JJJ)	.	.	.
8f\	]	8f\L	.	8a/L	.	.	.
8d\J)	.	8f\J	.	8b-/J	.	8ffn\	.
=11	=11	=11	=11	=11	=11	=11	=11
(8c\L	<	(8e-\L	<	16.an/LL	<	[2ff\	<
.	.	.	.	32bn/Jk	.	.	.
8d\	.	8f\	.	(16.bt/L	.	.	.
.	.	.	.	64a/LL	.	.	.
.	.	.	.	64b/JJJJ)	.	.	.
8e-\	.	8g\	.	(8cc\L	.	.	.
8d\J)	.	8f\J)	.	8b-\J)	.	.	.
=12	=12	=12	=12	=12	=12	=12	=12
(8c\L	.	(8e-\L	.	16.an/LL	.	4.ff\]	.
.	.	.	.	32bn/Jk	.	.	.
8d\	.	8f\	.	(16.bt/L	.	.	.
.	.	.	.	64a/LL	.	.	.
.	.	.	.	64b/JJJJ)	.	.	.
8.e-\	.	8.g\	.	(8.cc\L	]	.	.
.	.	.	.	.	.	(16ee-\LL	]
16f\Jk)	]	16a-\Jk)	]	16b\Jk)	.	16dd\JJ)	.
=13	=13	=13	=13	=13	=13	=13	=13
16e-'\LL	.	16g'\LL	f	16cc'\LL	f	16cc'\LL	f
(16e-\	.	(16g\	.	(16cc\	.	(16ccT\	.
!	!	!	!	!	!	! 16bP/LL	!
!	!	!	!	!	!	! 16ccP/JJ)	!
16d\	.	16f\	.	16bn\	.	16ddp\	.
16c\JJ)	.	16e-\JJ)	.	16cc\JJ)	.	16ee-\JJ)	.
4F\	>]	8f/L	>	8d/L	>	8b-\L	>
.	.	(16.An/L	.	8e-/J)	]	&(16.cc\L)	.
.	.	32B-/JJk)	]	.	.	32b-\JJk&)	]
=14	=14	=14	=14	=14	=14	=14	=14
[2BB-/	p	8B-\L	p	8d/L	p	[4b-\	p
.	.	(32g\LL	.	(32b-/LL	.	.	.
.	.	32a-\	.	32cc/	.	.	.
.	.	32g\	.	32b-/	.	.	.
.	.	32f\JJJ)	.	32a-/JJJ)	.	.	.
.	.	4en\	.	4g/	.	16b-\LL]	.
.	.	.	.	.	.	(16b-T\	.
!	!	!	!	!	!	! 16aP/LL	!
!	!	!	!	!	!	! 16b-P/JJ)	!
.	.	.	.	.	.	16dd-p\	.
.	.	.	.	.	.	16cc\JJ)	.
=15	=15	=15	=15	=15	=15	=15	=15
4BB-/_	.	(8f\L	.	(4f/	.	(16b-\LL	.
.	.	.	.	.	.	16an\	.
.	.	8d\J)	.	.	.	16a-\	.
.	.	.	.	.	.	16ff\JJ)	.
(8.BB-/L]	.	8.B-/L	.	4e-/)	.	(16a-\LL	.
.	.	.	.	.	.	16g\	.
.	.	.	.	.	.	16ee-\	.
16AAn/Jk)	.	16c/Jk	.	.	.	16g\JJ)	.
=16	=16	=16	=16	=16	=16	=16	=16
8BB-\L	.	4B-/	.	&(8e-/L)	.	&(8g/L)	.
8B-\	.	.	.	8d/J&)	.	8f/J&)	.
8BB-\J	.	4r	.	4r	.	8r	.
8r	.	.	.	.	.	8b-\	f
=17	=17	=17	=17	=17	=17	=17	=17
(4e-\	f	(4g\	f	2b-\	f	(4ee-\	.
8f\L	.	8a-\L	.	.	.	16.dd\LL)	.
.	.	.	.	.	.	32ee-\Jk	.
8e-\J)	.	8g\J)	.	.	.	(16.ee-T\L	.
.	.	.	.	.	.	64dd\LL	.
.	.	.	.	.	.	64ee-\JJJJ)	.
=18	=18	=18	=18	=18	=18	=18	=18
8d'\L	p	8f'\L	p	8b-'\L	p	8ff'\L	p
8d'\J	.	8f'\J	.	8b-'\J	.	8ff'\J	.
4r	.	4r	.	4r	.	8r	.
.	.	.	.	.	.	8b-\	f
=19	=19	=19	=19	=19	=19	=19	=19
(4e-\	f	(4e-\	f	2b-\	f	(4gg\	.
8d\L	.	8f\L	.	.	.	16.ff\LL)	.
.	.	.	.	.	.	32gg\Jk	.
8d-\J)	.	8e-\J)	.	.	.	(16.ggt\L	.
.	.	.	.	.	.	64ff\LL	.
.	.	.	.	.	.	64gg\JJJJ)	.
=20	=20	=20	=20	=20	=20	=20	=20
8c'\L	p	8e-'\L	p	8a-/L	p	8aa-'\L	p
8c'\J	.	8e-'\J	.	8a-/J	.	8aa-'\J	.
8r	.	8r	.	8r	.	8r	.
8A-\	f	8c\	f	8e-/	f	8ccc\	f
=21	=21	=21	=21	=21	=21	=21	=21
(4A-\	.	4.B-/	.	(8.f/L	.	(8.dd\L	.
.	.	.	.	32g/LL	.	32ee-\LL	.
.	.	.	.	32a-/JJJ	.	32ff\JJJ	.
8G\L)	.	.	.	8b-/L)	.	8ee-\L)	.
8G\J	.	8B-/	.	8e-/J	.	8b-\J	.
=22	=22	=22	=22	=22	=22	=22	=22
(8F\L	>	(8A-/L	>	(8d/L	>	(4b-\	>
8En\	.	8G/	.	8d-/	.	.	.
8E-\	.	8G-/	.	8c/	.	8an/L)	]
8D\J)	]	8F/J)	]	8c-/J)	]	[8a-/J	p
=23	=23	=23	=23	=23	=23	=23	=23
8E-/L	p	(4.E-/	p	(8B-/L	p	(16a-/LL]	.
.	.	.	.	.	.	16g/	.
8AA-/J	.	.	.	8cn/J)	.	16f/	.
.	.	.	.	.	.	16cc/JJ)	.
4BB-/	.	.	.	8G/L	.	8e-/L	.
.	.	8D/)	.	8A-/J)	.	&(16.f/L)	.
.	.	.	.	.	.	32e-/JJk&)	.
=24	=24	=24	=24	=24	=24	=24	=24
8E-/L	.	4E-/	.	4G/	.	4e-/	.
8BB-/	.	.	.	.	.	.	.
8EE-/J	.	8r	.	8r	.	8r	.
=:!!:	=:!!:	=:!!:	=:!!:	=:!!:	=:!!:	=:!!:	=:!!:
*>C	*	*>C	*	*>C	*	*>C	*
!	!	!	!	! dolce	!	!	!
8r	.	8r	.	8b-\	mf	8r	.
64ryy	.	64ryy	.	64ryy	.	64ryy	.
64ryy	.	64ryy	.	64ryy	.	64ryy	.
64ryy	.	64ryy	.	64ryy	.	64ryy	.
64ryy	.	64ryy	.	64ryy	.	64ryy	.
64ryy	.	64ryy	.	64ryy	.	64ryy	.
64ryy	.	64ryy	.	64ryy	.	64ryy	.
64ryy	.	64ryy	.	64ryy	.	64ryy	.
64ryy	.	64ryy	.	64ryy	.	64ryy	.
64ryy	.	64ryy	.	64ryy	.	64ryy	.
64ryy	.	64ryy	.	64ryy	.	64ryy	.
64ryy	.	64ryy	.	64ryy	.	64ryy	.
64ryy	.	64ryy	.	64ryy	.	64ryy	.
64ryy	.	64ryy	.	64ryy	.	64ryy	.
64ryy	.	64ryy	.	64ryy	.	64ryy	.
64ryy	.	64ryy	.	64ryy	.	64ryy	.
64ryy	.	64ryy	.	64ryy	.	64ryy	.
64ryy	.	64ryy	.	64ryy	.	64ryy	.
64ryy	.	64ryy	.	64ryy	.	64ryy	.
64ryy	.	64ryy	.	64ryy	.	64ryy	.
64ryy	.	64ryy	.	64ryy	.	64ryy	.
64ryy	.	64ryy	.	64ryy	.	64ryy	.
64ryy	.	64ryy	.	64ryy	.	64ryy	.
64ryy	.	64ryy	.	64ryy	.	64ryy	.
64ryy	.	64ryy	.	64ryy	.	64ryy	.
=25	=25	=25	=25	=25	=25	=25	=25
*	*	*^	*	*	*	*	*
(4e-\	mf	2b-/	(4g\	mf	(4ee-\	.	2r	.
8f\L	.	.	8a-\L	.	16.dd\LL)	.	.	.
.	.	.	.	.	32ee-\Jk	.	.	.
8e-\J)	.	.	8g\J)	.	(16.ee-T\L	.	.	.
.	.	.	.	.	64dd\LL	.	.	.
.	.	.	.	.	64ee-\JJJJ)	.	.	.
=26	=26	=26	=26	=26	=26	=26	=26	=26
*	*	*v	*v	*	*	*	*	*
8d'\L	.	8b-'\ 8f\L	.	8ff'\L	.	32r	.
.	.	.	.	.	.	(32bb-\LLL	mf
.	.	.	.	.	.	32aan\	.
.	.	.	.	.	.	32bb-\JJ	.
8d'\J	.	8b-'\ 8f\J	.	8ff'\J	.	32aa\LL	.
.	.	.	.	.	.	32bb-\	.
.	.	.	.	.	.	32ccc\	.
.	.	.	.	.	.	32bb-\JJJ)	.
4r	.	4r	.	8r	.	32aa-\LLL	.
.	.	.	.	.	.	32gg\	.
.	.	.	.	.	.	32ff\	.
.	.	.	.	.	.	32ee-\JJ	.
.	.	.	.	8b-\	.	32dd\LL	.
.	.	.	.	.	.	32cc\	.
.	.	.	.	.	.	32b-\	.
.	.	.	.	.	.	32a-\JJJ	.
=27	=27	=27	=27	=27	=27	=27	=27
(4e-\	.	2b-\	.	(4gg\	.	4g/	.
8d\L	.	.	.	16.ff\LL)	.	4r	.
.	.	.	.	32gg\Jk	.	.	.
8d-\J)	.	.	.	(16.ggt\L	.	.	.
.	.	.	.	64ff\LL	.	.	.
.	.	.	.	64gg\JJJJ)	.	.	.
=28	=28	=28	=28	=28	=28	=28	=28
8c'\L	.	8e-'\L	.	8aa-'\L	.	32r	.
.	.	.	.	.	.	(32eee-\LLL	.
.	.	.	.	.	.	32ddd\	.
.	.	.	.	.	.	32eee-\JJ	.
8c'\J	.	8e-'\J	.	8aa-'\J	.	32ddd\LL	.
.	.	.	.	.	.	32eee-\	.
.	.	.	.	.	.	32fff\	.
.	.	.	.	.	.	32eee-\JJJ)	.
8r	.	8r	.	8r	.	(32ddd\LLL	.
.	.	.	.	.	.	32ccc\	.
.	.	.	.	.	.	32bb-\	.
.	.	.	.	.	.	32aa-\JJ	.
8A-\	.	8f\	.	8cc\	.	32gg\LL	.
.	.	.	.	.	.	32ff\	.
.	.	.	.	.	.	32aa-\	.
.	.	.	.	.	.	32ccc\JJJ)	.
=29	=29	=29	=29	=29	=29	=29	=29
(4A-\	.	(4f\	.	(4b-/ 4d/	.	(32ee-\LLL	.
.	.	.	.	.	.	32dd\)	.
.	.	.	.	.	.	(32ccc\	.
.	.	.	.	.	.	32bb-\JJ)	.
.	.	.	.	.	.	(32ee-\LL	.
.	.	.	.	.	.	32dd\)	.
.	.	.	.	.	.	(32ccc\	.
.	.	.	.	.	.	32bb-\JJJ)	.
8G\L)	.	8g\L)	.	8b-/ 8e-/L)	.	(32aa-\LLL	.
.	.	.	.	.	.	32gg\	.
.	.	.	.	.	.	32ff\	.
.	.	.	.	.	.	32ee-\JJ)	.
8G\J	.	8B-\J	.	8e-/J	.	(32dd\LL	.
.	.	.	.	.	.	32ee-\	.
.	.	.	.	.	.	32ff\	.
.	.	.	.	.	.	32ee-\JJJ)	.
=30	=30	=30	=30	=30	=30	=30	=30
8F\L	<	(8A-/L	<	(8d/L	<	(32cc\LLL	<
.	.	.	.	.	.	32b-\)	.
.	.	.	.	.	.	32b-'\	.
.	.	.	.	.	.	32b-'\JJ	.
8G\J	]	8B-/J)	]	8en/J)	]	(32dd-\LL	.
.	.	.	.	.	.	32cc\)	.
.	.	.	.	.	.	32cc'\	.
.	.	.	.	.	.	32cc'\JJJ	]
[4A-\	>]	4c\	>]	4f/	>]	(32dd-/LLL	>
.	.	.	.	.	.	32cc/	.
.	.	.	.	.	.	32dd-/	.
.	.	.	.	.	.	32cc/JJ)	.
.	.	.	.	.	.	(32b-/LL	.
.	.	.	.	.	.	32a-/	.
.	.	.	.	.	.	32g/	.
.	.	.	.	.	.	32f/JJJ)	]
=31	=31	=31	=31	=31	=31	=31	=31
8A-\L]	p	8F/L	p	[4.B-/	p	(32e-/LLL	p
.	.	.	.	.	.	32dn/	.
.	.	.	.	.	.	32cc/	.
.	.	.	.	.	.	32b-/JJ)	.
8G\	.	8E-/	.	.	.	(32f/LL	.
.	.	.	.	.	.	32e-/	.
.	.	.	.	.	.	32cc/	.
.	.	.	.	.	.	32b-/JJJ)	.
8D\	.	8f/	.	.	.	(32an\LLL	.
.	.	.	.	.	.	32b-\	.
.	.	.	.	.	.	32a-\	.
.	.	.	.	.	.	32ff\JJ)	.
8E-\J	.	8e-/J	.	(16B-/L]	.	(32a-\LL	.
.	.	.	.	.	.	32g\	.
.	.	.	.	16e-/Jk)	.	32ee-\	.
.	.	.	.	.	.	32g\JJJ)	.
=32	=32	=32	=32	=32	=32	=32	=32
8BB-\L	.	4B-/	.	(8.g/L	.	(8.b-/L	.
8B-\	.	.	.	.	.	.	.
.	.	.	.	64f/LLL	.	64a-/LLL	.
.	.	.	.	64e-/	.	64g/	.
.	.	.	.	64d/	.	64f/	.
.	.	.	.	64e-/JJJJ)	.	64g/JJJJ)	.
8BB-\J	.	8r	.	8d/	.	8f/	.
=:!!:	=:!!:	=:!!:	=:!!:	=:!!:	=:!!:	=:!!:	=:!!:
*>D	*	*>D	*	*>D	*	*>D	*
8r	.	8r	.	8r	.	8ff\	.
64ryy	.	64ryy	.	64ryy	.	64ryy	.
64ryy	.	64ryy	.	64ryy	.	64ryy	.
64ryy	.	64ryy	.	64ryy	.	64ryy	.
64ryy	.	64ryy	.	64ryy	.	64ryy	.
64ryy	.	64ryy	.	64ryy	.	64ryy	.
64ryy	.	64ryy	.	64ryy	.	64ryy	.
64ryy	.	64ryy	.	64ryy	.	64ryy	.
64ryy	.	64ryy	.	64ryy	.	64ryy	.
64ryy	.	64ryy	.	64ryy	.	64ryy	.
64ryy	.	64ryy	.	64ryy	.	64ryy	.
64ryy	.	64ryy	.	64ryy	.	64ryy	.
64ryy	.	64ryy	.	64ryy	.	64ryy	.
64ryy	.	64ryy	.	64ryy	.	64ryy	.
64ryy	.	64ryy	.	64ryy	.	64ryy	.
64ryy	.	64ryy	.	64ryy	.	64ryy	.
64ryy	.	64ryy	.	64ryy	.	64ryy	.
64ryy	.	64ryy	.	64ryy	.	64ryy	.
64ryy	.	64ryy	.	64ryy	.	64ryy	.
64ryy	.	64ryy	.	64ryy	.	64ryy	.
64ryy	.	64ryy	.	64ryy	.	64ryy	.
64ryy	.	64ryy	.	64ryy	.	64ryy	.
64ryy	.	64ryy	.	64ryy	.	64ryy	.
64ryy	.	64ryy	.	64ryy	.	64ryy	.
64ryy	.	64ryy	.	64ryy	.	64ryy	.
=33	=33	=33	=33	=33	=33	=33	=33
8r	.	(32d\LLL	.	(32f/LLL	.	[4b-\	.
.	.	32e-\	.	32g/	.	.	.
.	.	32f\	.	32a-/	.	.	.
.	.	32e-\JJ	.	32g/JJ	.	.	.
8BB-/L	.	32f\LL	.	32a-/LL	.	.	.
.	.	32e-\	.	32g/	.	.	.
.	.	32f\	.	32a-/	.	.	.
.	.	32d\JJJ)	.	32f#/JJJ)	.	.	.
8EE-/J	.	8e-\	.	8g/	.	32b-\LLL]	.
.	.	.	.	.	.	(32ff#\	.
.	.	.	.	.	.	32gg\	.
.	.	.	.	.	.	32ff#\JJ	.
8r	.	8r	.	8r	.	32gg\LL	.
.	.	.	.	.	.	32ff#\	.
.	.	.	.	.	.	32gg\	.
.	.	.	.	.	.	32ee-\JJJ)	.
=34	=34	=34	=34	=34	=34	=34	=34
8r	.	(32en\LLL	.	(32g/LLL	.	[4cc\	.
.	.	32f\	.	32an/	.	.	.
.	.	32g\	.	32b-/	.	.	.
.	.	32f\JJ	.	32a/JJ	.	.	.
8C/L	.	32g\LL	.	32b-/LL	.	.	.
.	.	32f\	.	32a/	.	.	.
.	.	32g\	.	32b-/	.	.	.
.	.	32e\JJJ)	.	32g/JJJ)	.	.	.
8FF/J	.	8f\L	.	8a/L	.	32cc\LLL]	.
.	.	.	.	.	.	(32ffn\	.
.	.	.	.	.	.	32een\	.
.	.	.	.	.	.	32ff\JJ	.
8d\	.	8f\J	.	8b-/J	.	32ee\LL	.
.	.	.	.	.	.	32ff\	.
.	.	.	.	.	.	32gg\	.
.	.	.	.	.	.	32ff\JJJ)	.
=35	=35	=35	=35	=35	=35	=35	=35
(8c\L	<	(8e-\L	<	(32an\LLL	<	[2ff\	<
.	.	.	.	32b-\	.	.	.
.	.	.	.	32a\	.	.	.
.	.	.	.	32cc\JJ)	.	.	.
8d\	.	8f\	.	(32bn\LL	.	.	.
.	.	.	.	32cc\	.	.	.
.	.	.	.	32b\	.	.	.
.	.	.	.	32dd\JJJ)	.	.	.
8e-\	.	8g\	.	(32dd\LLL	.	.	.
.	.	.	.	32cc\)	.	.	.
.	.	.	.	32cc'\	.	.	.
.	.	.	.	32cc'\JJ	.	.	.
8d\J)	.	8f\J)	.	(32cc\LL	.	.	.
.	.	.	.	32b-\)	.	.	.
.	.	.	.	32b-'\	.	.	.
.	.	.	.	32b-'\JJJ	.	.	.
=36	=36	=36	=36	=36	=36	=36	=36
(8c\L	.	(8e-\L	.	(32an\LLL	.	4.ff\]	.
.	.	.	.	32b-\	.	.	.
.	.	.	.	32a\	.	.	.
.	.	.	.	32cc\JJ)	.	.	.
8d\	.	8f\	.	(32bn\LL	.	.	.
.	.	.	.	32cc\	.	.	.
.	.	.	.	32b\	.	.	.
.	.	.	.	32dd\JJJ)	.	.	.
8e-\	.	8g\	.	(32dd\LLL	.	.	.
.	.	.	.	32cc\)	.	.	.
.	.	.	.	32cc'\	.	.	.
.	.	.	.	32cc'\JJ	.	.	.
8f\J)	]	8a-\J)	]	(8b\J	]	(32ff\LLL	.
.	.	.	.	.	.	32ee-\)	.
.	.	.	.	.	.	(32ee-\	.
.	.	.	.	.	.	32dd\JJJ)	]
=37	=37	=37	=37	=37	=37	=37	=37
4e-\	f	4g\	f	8cc\)	f	(32dd\LLL	f
.	.	.	.	.	.	32cc\	.
.	.	.	.	.	.	32bn\	.
.	.	.	.	.	.	32cc\JJ	.
.	.	.	.	8r	.	32dd\LL	.
.	.	.	.	.	.	32ee-\	.
.	.	.	.	.	.	32ff#\	.
.	.	.	.	.	.	32gg\JJJ)	.
8F\L	>	8d/L	>	8f/L	>	8b-\L)	>
8F\J	]	8An/J	]	8e-/J	]	&(16.cc\L)	.
.	.	.	.	.	.	32b-\JJk&)	]
=38	=38	=38	=38	=38	=38	=38	=38
32r	.	32r	.	8d-/	p	[4b-\	p
(32AAn/LLL	p	(32c\LLL	p	.	.	.	.
32BB-/	.	32d-\	.	.	.	.	.
32AA/JJ	.	32c\JJ	.	.	.	.	.
32BB-/LL	.	32d-\LL	.	8r	.	.	.
32AA-/	.	32c\	.	.	.	.	.
32GG/	.	32B-\	.	.	.	.	.
32FF/JJJ)	.	32A-\JJJ)	.	.	.	.	.
4EEn/	.	4G/	.	[4c/	.	32b-\LLL]	.
.	.	.	.	.	.	(32an\	.
.	.	.	.	.	.	32b-\	.
.	.	.	.	.	.	32cc\JJ	.
.	.	.	.	.	.	32ee-\LL	.
.	.	.	.	.	.	32dd-\	.
.	.	.	.	.	.	32cc\	.
.	.	.	.	.	.	32b-\JJJ)	.
=39	=39	=39	=39	=39	=39	=39	=39
8FF/L	.	8F/L	.	8c/]	.	(32b-\LLL	.
.	.	.	.	.	.	32an\	.
.	.	.	.	.	.	32b-\	.
.	.	.	.	.	.	32a\JJ)	.
8DD/	.	8f/J	.	4B-/	.	(32b-\LL	.
.	.	.	.	.	.	32a-\	.
.	.	.	.	.	.	32ff\	.
.	.	.	.	.	.	32a-\JJJ)	.
8EE-/	.	(8.e-\L	.	.	.	(32a-/LLL	.
.	.	.	.	.	.	32g/	.
.	.	.	.	.	.	32a-/	.
.	.	.	.	.	.	32b-/JJ)	.
8AA-/J	.	.	.	16A-/LL	.	(32bn/LL	.
.	.	.	.	.	.	32cc/	.
.	.	32c\LL	.	16c/JJ	.	32a-/	.
.	.	32A-\JJJ)	.	.	.	32f/JJJ)	.
=40	=40	=40	=40	=40	=40	=40	=40
8BB-\L	.	(8.G/L	.	8B-/	.	(8.e-/L	.
8B-\	.	.	.	8r	.	.	.
.	.	32A-/LL	.	.	.	32f/LL	.
.	.	32G/JJJ)	.	.	.	32e-/JJJ)	.
8BB-\J	.	8F/	.	8r	.	8d/	.
8r	.	8r	.	8b-\	mf	8r	.
=41	=41	=41	=41	=41	=41	=41	=41
*	*	*^	*	*	*	*	*
(4e-\	mf	2b-/	(4g\	mf	(4ee-\	.	2r	.
8f\L	.	.	8a-\L	.	16.dd\LL)	.	.	.
.	.	.	.	.	32ee-\Jk	.	.	.
8e-\J)	.	.	8g\J)	.	(16.ee-T\L	.	.	.
.	.	.	.	.	64dd\LL	.	.	.
.	.	.	.	.	64ee-\JJJJ)	.	.	.
=42	=42	=42	=42	=42	=42	=42	=42	=42
*	*	*v	*v	*	*	*	*	*
8d'\L	.	8b-'\ 8f\L	.	8ff'\L	.	32r	.
.	.	.	.	.	.	(32bb-\LLL	mf
.	.	.	.	.	.	32aan\	.
.	.	.	.	.	.	32bb-\JJ	.
8d'\J	.	8b-'\ 8f\J	.	8ff'\J	.	32aa\LL	.
.	.	.	.	.	.	32bb-\	.
.	.	.	.	.	.	32ccc\	.
.	.	.	.	.	.	32bb-\JJJ)	.
4r	.	4r	.	8r	.	32aa-\LLL	.
.	.	.	.	.	.	32gg\	.
.	.	.	.	.	.	32ff\	.
.	.	.	.	.	.	32ee-\JJ	.
.	.	.	.	8b-\	.	32dd\LL	.
.	.	.	.	.	.	32cc\	.
.	.	.	.	.	.	32b-\	.
.	.	.	.	.	.	32a-\JJJ	.
=43	=43	=43	=43	=43	=43	=43	=43
(4e-\	.	2b-\	.	(4gg\	.	4g/	.
8d\L	.	.	.	16.ff\LL)	.	4r	.
.	.	.	.	32gg\Jk	.	.	.
8d-\J)	.	.	.	(16.ggt\L	.	.	.
.	.	.	.	64ff\LL	.	.	.
.	.	.	.	64gg\JJJJ)	.	.	.
=44	=44	=44	=44	=44	=44	=44	=44
8c'\L	.	8e-'\L	.	8aa-'\L	.	32r	.
.	.	.	.	.	.	(32eee-\LLL	.
.	.	.	.	.	.	32ddd\	.
.	.	.	.	.	.	32eee-\JJ	.
8c'\J	.	8e-'\J	.	8aa-'\J	.	32ddd\LL	.
.	.	.	.	.	.	32eee-\	.
.	.	.	.	.	.	32fff\	.
.	.	.	.	.	.	32eee-\JJJ)	.
8r	.	8r	.	8r	.	(32ddd\LLL	.
.	.	.	.	.	.	32ccc\	.
.	.	.	.	.	.	32bb-\	.
.	.	.	.	.	.	32aa-\JJ)	.
8A-\	.	8f\	.	8cc\	.	(32gg\LL	.
.	.	.	.	.	.	32ff\	.
.	.	.	.	.	.	32aa-\	.
.	.	.	.	.	.	32ccc\JJJ)	.
=45	=45	=45	=45	=45	=45	=45	=45
(4A-\	.	(4f\	.	(4b-/ 4d/	.	(32ee-\LLL	.
.	.	.	.	.	.	32dd\)	.
.	.	.	.	.	.	(32ccc\	.
.	.	.	.	.	.	32bb-\JJ)	.
.	.	.	.	.	.	(32ee-\LL	.
.	.	.	.	.	.	32dd\)	.
.	.	.	.	.	.	(32ccc\	.
.	.	.	.	.	.	32bb-\JJJ)	.
8G\L)	.	8g\L)	.	8b-/ 8e-/L)	.	(32aa-\LLL	.
.	.	.	.	.	.	32gg\	.
.	.	.	.	.	.	32ff\	.
.	.	.	.	.	.	32ee-\JJ)	.
8G\J	.	8B-\J	.	8e-/J	.	(32dd\LL	.
.	.	.	.	.	.	32ee-\	.
.	.	.	.	.	.	32ff\	.
.	.	.	.	.	.	32ee-\JJJ)	.
=46	=46	=46	=46	=46	=46	=46	=46
(8F\L	>	(8A-/L	>	(8d/L	>	(32cc\LLL	>
.	.	.	.	.	.	32b-\)	.
.	.	.	.	.	.	32b-'\	.
.	.	.	.	.	.	32b-'\JJ	.
8En\	.	8G/	.	8d-/	.	(32gg\LL	.
.	.	.	.	.	.	32b-\)	.
.	.	.	.	.	.	32b-'\	.
.	.	.	.	.	.	32b-'\JJJ	.
8E-\	.	8G-/	.	8c/	.	(32b-\LLL	.
.	.	.	.	.	.	32an\)	.
.	.	.	.	.	.	32a'\	.
.	.	.	.	.	.	32a'\JJ	.
8D\J)	]	8F/J)	]	8c-/J)	]	(32ff\LL	.
.	.	.	.	.	.	32a-\)	.
.	.	.	.	.	.	32a-'\	.
.	.	.	.	.	.	32a-'\JJJ	]
=47	=47	=47	=47	=47	=47	=47	=47
8E-/L	p	(4.E-/	p	(8B-/L	.	(32a-/LLL	p
.	.	.	.	.	.	32g/	.
.	.	.	.	.	.	32f#/	.
.	.	.	.	.	.	32g/JJ)	.
8AA-/J	.	.	.	8cn/J)	.	(32en/LL	.
.	.	.	.	.	.	32fn/	.
.	.	.	.	.	.	32a-/	.
.	.	.	.	.	.	32cc/JJJ)	.
4BB-/	.	.	.	8G/L	.	8e-/L)	.
.	.	8D/)	.	8A-/J)	.	&(16.f/L)	.
.	.	.	.	.	.	32e-/JJk&)	.
=48	=48	=48	=48	=48	=48	=48	=48
8E-/L	.	4E-/	.	4G/	.	4e-/	.
8BB-/	.	.	.	.	.	.	.
8EE-/J	.	8r	.	8r	.	8r	.
=:|!	=:|!	=:|!	=:|!	=:|!	=:|!	=:|!	=:|!
*>E	*	*>E	*	*>E	*	*>E	*
8r	.	8r	.	8B-/	p	8r	.
64ryy	.	64ryy	.	64ryy	.	64ryy	.
64ryy	.	64ryy	.	64ryy	.	64ryy	.
64ryy	.	64ryy	.	64ryy	.	64ryy	.
64ryy	.	64ryy	.	64ryy	.	64ryy	.
64ryy	.	64ryy	.	64ryy	.	64ryy	.
64ryy	.	64ryy	.	64ryy	.	64ryy	.
64ryy	.	64ryy	.	64ryy	.	64ryy	.
64ryy	.	64ryy	.	64ryy	.	64ryy	.
64ryy	.	64ryy	.	64ryy	.	64ryy	.
64ryy	.	64ryy	.	64ryy	.	64ryy	.
64ryy	.	64ryy	.	64ryy	.	64ryy	.
64ryy	.	64ryy	.	64ryy	.	64ryy	.
64ryy	.	64ryy	.	64ryy	.	64ryy	.
64ryy	.	64ryy	.	64ryy	.	64ryy	.
64ryy	.	64ryy	.	64ryy	.	64ryy	.
64ryy	.	64ryy	.	64ryy	.	64ryy	.
64ryy	.	64ryy	.	64ryy	.	64ryy	.
64ryy	.	64ryy	.	64ryy	.	64ryy	.
64ryy	.	64ryy	.	64ryy	.	64ryy	.
64ryy	.	64ryy	.	64ryy	.	64ryy	.
64ryy	.	64ryy	.	64ryy	.	64ryy	.
64ryy	.	64ryy	.	64ryy	.	64ryy	.
64ryy	.	64ryy	.	64ryy	.	64ryy	.
64ryy	.	64ryy	.	64ryy	.	64ryy	.
=49	=49	=49	=49	=49	=49	=49	=49
2r	.	8r	.	(4e-/	.	2r	.
.	.	8E-/	p	.	.	.	.
.	.	(4B-/	.	16.d/LL)	.	.	.
.	.	.	.	32e-/Jk	.	.	.
.	.	.	.	(16.e-T/L	.	.	.
.	.	.	.	64d/LL	.	.	.
.	.	.	.	64e-/JJJJ)	.	.	.
=50	=50	=50	=50	=50	=50	=50	=50
2r	.	16.A-/LL)	.	8f'/L	.	4r	.
.	.	32B-/Jk	.	.	.	.	.
.	.	(16.B-T/L	.	8f'/J	.	.	.
.	.	64A-/LL	.	.	.	.	.
.	.	64B-/JJJJ)	.	.	.	.	.
.	.	8c'\L	.	4r	.	8r	.
.	.	8c'\J	.	.	.	8e-/	p
=51	=51	=51	=51	=51	=51	=51	=51
8r	.	8r	.	8r	.	(4a-/	.
8BB-/	p	8D/L	.	8f/	.	.	.
(4E-\	.	8G/	.	16.B-/LL	.	16.g/LL)	.
.	.	.	.	32c/Jk	.	32an/Jk	.
.	.	8F/J	.	(16.cT/L	.	(16.at/L	.
.	.	.	.	64B-/LL	.	64g/LL	.
.	.	.	.	64c/JJJJ)	.	64a/JJJJ)	.
=52	=52	=52	=52	=52	=52	=52	=52
16.D\LL)	.	16.F/LL	.	8B-'/L	.	8b-'\L	.
32En\Jk	.	32G/Jk	.	.	.	.	.
(16.Et\L	.	(16.Gt/L	.	8B-'/J	.	8b-'\J	.
64D\LL	.	64F/LL	.	.	.	.	.
64E\JJJJ)	.	64G/JJJJ)	.	.	.	.	.
8F'\L	.	8A-'/L	.	4r	.	8r	.
8F'\J	.	8A-'/J	.	.	.	8a-/	.
=53	=53	=53	=53	=53	=53	=53	=53
8r	.	8r	.	8r	.	(4dd-\	.
8E-\	.	8G/L	.	8b-\	.	.	.
(4A-\	.	8c/	.	16.e-/LL	.	16.cc\LL)	.
.	.	.	.	32f/Jk	.	32ddn\Jk	.
.	.	8B-/J	.	16.fT/L	.	(16.ddT\L	.
.	.	.	.	64e-/LL	.	64cc\LL	.
.	.	.	.	64f/JJJJ	.	64dd\JJJJ)	.
=54	=54	=54	=54	=54	=54	=54	=54
16.G\LL)	.	16.B-/LL	.	8e-/	.	8ee-'\L	.
32An\Jk	.	32c/Jk	.	.	.	.	.
(16.At\L	.	(16.cT/L	.	4f/	.	8ee-'\J	.
64G\LL	.	64B-/LL	.	.	.	.	.
64A\JJJJ)	.	64c/JJJJ)	.	.	.	.	.
16.B-\LL	.	16.d/LL	.	.	.	(8dd\L	.
32G\Jk	.	32B-/Jk	.	.	.	.	.
(16.Gt\L	.	(16.B-T/L	.	[8e-/	.	8dd-\J)	.
64F\LL	.	64A-/LL	.	.	.	.	.
64G\JJJJ)	.	64B-/JJJJ)	.	.	.	.	.
=55	=55	=55	=55	=55	=55	=55	=55
8A-\L	.	8c/L	.	4e-/]	.	16.cc\LL	.
.	.	.	.	.	.	32ddn\k	.
8G\	.	8B-/	.	.	.	16.ee-\	.
.	.	.	.	.	.	32b-\JJk	.
8D\	.	8B-/	.	16.f/LL	.	16.a-/LL	.
.	.	.	.	32d/k	.	32f/k	.
8E-\J	.	8B-/J	.	16.e-/	.	16.g/	.
.	.	.	.	32f/JJk	.	32a-/JJk	.
=56	=56	=56	=56	=56	=56	=56	=56
8BB-\L	.	4B-/	.	(4e-/	.	(4g/	.
8B-\	.	.	.	.	.	.	.
8BB-\J	.	4r	.	8d/)	.	8f/)	.
8r	.	.	.	8r	.	8ff\	.
=57	=57	=57	=57	=57	=57	=57	=57
8r	.	8r	.	8r	.	[4b-\	.
(8d\L	>	(32g\LLL	.	(32b-/LLL	.	.	.
.	.	32f\	.	32a-/	.	.	.
.	.	32e-\	.	32g/	.	.	.
.	.	32f\JJJ)	.	32a-/JJJ)	.	.	.
8e-\J)	]	8e-\	.	8g/	.	16b-\LL]	.
.	.	.	.	.	.	(16ff#\	.
8r	.	8r	.	8r	.	16gg\	.
.	.	.	.	.	.	16ee-\JJ)	.
=58	=58	=58	=58	=58	=58	=58	=58
8r	.	8r	.	8r	.	4.cc\	.
(8en\L	>	(32a\LLL	.	(32cc/LLL	.	.	.
.	.	32g\	.	32b-/	.	.	.
.	.	32f\	.	32an/	.	.	.
.	.	32g\JJJ)	.	32b-/JJJ)	.	.	.
8f\)	]	8f\L	.	8a/L	.	.	.
8d\J	.	8f\J	.	8b-/J	.	8ffn\	.
=59	=59	=59	=59	=59	=59	=59	=59
16.c\LL	<	16.e-\LL	<	16.an/LL	<	[2ff\	<
32d\Jk	.	32f\Jk	.	32bn/Jk	.	.	.
(16.dT\L	.	(16.fT\L	.	(16.bt/L	.	.	.
64c\LL	.	64e-\LL	.	64a/LL	.	.	.
64d\JJJJ)	.	64f\JJJJ)	.	64b/JJJJ)	.	.	.
(8e-\L	.	(8g\L	.	(8cc\L	.	.	.
8d\J)	.	8f\J)	.	8b-\J)	.	.	.
=60	=60	=60	=60	=60	=60	=60	=60
16.c\LL	.	16.e-\LL	.	16.an/LL	.	4.ff\]	.
32d\Jk	.	32f\Jk	.	32bn/Jk	.	.	.
(16.dT\L	.	(16.fT\L	.	(16.bt/L	.	.	.
64c\LL	.	64e-\LL	.	64a/LL	.	.	.
64d\JJJJ)	.	64f\JJJJ)	.	64b/JJJJ)	.	.	.
(8.e-\L	.	(8.g\L	.	(8.cc\L	.	.	.
.	.	.	.	.	.	(16ee-\LL	.
16f\Jk)	]	16a-\Jk)	]	16b\Jk)	]	16dd\JJ)	]
=61	=61	=61	=61	=61	=61	=61	=61
16e-'\LL	f	16g'\LL	f	16cc'\LL	f	16cc'\LL	f
(16e-\	.	(16g\	.	(16cc\	.	(16ccT\	.
!	!	!	!	!	!	! 16bP/LL	!
!	!	!	!	!	!	! 16ccP/JJ)	!
16d\	.	16f\	.	16bn\	.	16ddp\	.
16c\JJ)	.	16e-\JJ)	.	16cc\JJ)	.	16ee-\JJ)	.
4F\	>]	8f/L	>	8d/L	>	8b-\L	>
.	.	(16.An/L	.	8e-/J)	]	&(16.cc\L)	.
.	.	32B-/JJk)	]	.	.	32b-\JJk&)	]
=62	=62	=62	=62	=62	=62	=62	=62
[2BB-/	p	8B-\L	p	8d/L	p	[4b-\	p
.	.	(32g\LL	.	(32b-/LL	.	.	.
.	.	32a-\	.	32cc/	.	.	.
.	.	32g\	.	32b-/	.	.	.
.	.	32f\JJJ)	.	32a-/JJJ)	.	.	.
.	.	4en\	.	4g/	.	16b-\LL]	.
.	.	.	.	.	.	(16b-T\	.
!	!	!	!	!	!	! 16aP/LL	!
!	!	!	!	!	!	! 16b-P/JJ)	!
.	.	.	.	.	.	16dd-p\	.
.	.	.	.	.	.	16cc\JJ)	.
=63	=63	=63	=63	=63	=63	=63	=63
4BB-/_	.	(8f\L	.	(4f/	.	(16b-\LL	.
.	.	.	.	.	.	16an\	.
.	.	8d\J)	.	.	.	16a-\	.
.	.	.	.	.	.	16ff\JJ)	.
8.BB-/L]	.	(8.B-/L	.	4e-/)	.	(16a-\LL	.
.	.	.	.	.	.	16g\	.
.	.	.	.	.	.	16ee-\	.
16AAn/Jk	.	16c/Jk)	.	.	.	16g\JJ)	.
=64	=64	=64	=64	=64	=64	=64	=64
8BB-\L	.	4B-/	.	&(8e-/L)	.	&(8g/L)	.
8B-\	.	.	.	8d/J&)	.	8f/J&)	.
8BB-\J	.	4r	.	8r	.	8r	.
8r	.	.	.	8b-\	f	8b-\	f
=65	=65	=65	=65	=65	=65	=65	=65
8r	.	8r	.	(4g/	.	(4ee-\	.
8EE-/	f	8B-/L	f	.	.	.	.
(4BB-/	.	8A-/	.	16.f/LL)	.	16.dd\LL)	.
.	.	.	.	32g/Jk	.	32ee-\Jk	.
.	.	8G/J	.	(16.gt/L	.	(16.ee-T\L	.
.	.	.	.	64f/LL	.	64dd\LL	.
.	.	.	.	64g/JJJJ)	.	64ee-\JJJJ)	.
=66	=66	=66	=66	=66	=66	=66	=66
16.AA-/LL)	.	16.c\LL	.	8a-/	.	8ff'\L	.
32BB-/Jk	.	32d\Jk	.	.	.	.	.
(16.BB-T/L	.	(16.dT\L	.	8r	.	8ff'\J	.
64AA-/LL	.	64c\LL	.	.	.	.	.
64BB-/JJJJ)	.	64d\JJJJ)	.	.	.	.	.
8C'/L	.	8e-'\L	.	4r	.	8r	.
8C'/J	.	8e-'\J	.	.	.	8ee-\	.
=67	=67	=67	=67	=67	=67	=67	=67
8r	.	8r	.	8r	.	(4aa-\	.
8BB-/	.	8d\L	.	8ff\	.	.	.
(4E-\	.	8g\	.	16.b-\LL	.	16.gg\LL)	.
.	.	.	.	32cc\Jk	.	32aan\Jk	.
.	.	8f\J	.	(16.ccT\L	.	(16.aat\L	.
.	.	.	.	64b-\LL	.	64gg\LL	.
.	.	.	.	64cc\JJJJ)	.	64aa\JJJJ)	.
=68	=68	=68	=68	=68	=68	=68	=68
16.D\LL)	>	16.f\LL	>	(8b-\L	>	(4bb-\	>
32En\Jk	.	32g\Jk	.	.	.	.	.
(16.Et\L	.	(16.gt\L	.	8dd-\	.	.	.
64D\LL	.	64f\LL	.	.	.	.	.
64E\JJJJ)	.	64g\JJJJ)	.	.	.	.	.
(8F\L	.	(8an\L	.	8cc\	.	8aan\L)	.
8D\J)	]	8f\J)	]	8cc-\J)	]	[8aa-\J	]
=69	=69	=69	=69	=69	=69	=69	=69
8E-/L	p	(4.e-\	p	(8b-\L	p	16aa-\LL]	p
.	.	.	.	.	.	(16gg\	.
8AA-/	.	.	.	8ccn\J)	.	16ff\	.
.	.	.	.	.	.	16ccc\JJ)	.
8BB-/	.	.	.	8g/L	.	8ee-\L	.
8BB-/J	.	8d\)	.	&(16.a-/L)	.	&(16.ff\L)	.
.	.	.	.	32g/JJk&)	.	32ee-\JJk&)	.
=70	=70	=70	=70	=70	=70	=70	=70
4E-\	.	8e-\L	.	(32g\LLL	.	4ee-\	.
.	.	.	.	32b-\)	.	.	.
.	.	.	.	32ee-'\	.	.	.
.	.	.	.	32b-'\JJ	.	.	.
.	.	16e-'\L	.	(32g\LL	.	.	.
.	.	.	.	32b-\)	.	.	.
.	.	16f'\JJ	.	32a-'\	.	.	.
.	.	.	.	32b-'\JJJ	.	.	.
4r	.	16e-'\LL	.	32g'/LLL	.	8r	.
.	.	.	.	32b-'/	.	.	.
.	.	16d'\	.	32f'/	.	.	.
.	.	.	.	32b-'/JJ	.	.	.
.	.	16e-'\	.	32g'/LL	.	8b-\	.
.	.	.	.	32b-'/	.	.	.
.	.	16f'\JJ	.	32a-'/	.	.	.
.	.	.	.	32b-'/JJJ	.	.	.
=71	=71	=71	=71	=71	=71	=71	=71
2r	.	8e-\L	.	(32g\LLL	.	4ee-\	.
.	.	.	.	32b-\)	.	.	.
.	.	.	.	32ee-'\	.	.	.
.	.	.	.	32b-'\JJ	.	.	.
.	.	8e-\	.	(32g\LL	.	.	.
.	.	.	.	32b-\)	.	.	.
.	.	.	.	32g'\	.	.	.
.	.	.	.	32b-'\JJJ	.	.	.
.	.	8f\	.	32a-'/LLL	.	16.dd\LL	.
.	.	.	.	32b-'/	.	.	.
.	.	.	.	32a-'/	.	.	.
.	.	.	.	32b-'/JJ	.	32ee-\Jk	.
.	.	8e-\J	.	32g'/LL	.	(16.ee-T\L	.
.	.	.	.	32b-'/	.	.	.
.	.	.	.	32g'/	.	.	.
.	.	.	.	32b-'/JJJ	.	64dd\LL	.
.	.	.	.	.	.	64ee-\JJJJ)	.
=72	=72	=72	=72	=72	=72	=72	=72
4r	.	16d'\LL	.	(32f/LLL	.	8ff'\L	.
.	.	.	.	32b-/)	.	.	.
.	.	16e-'\	.	32g'/	.	.	.
.	.	.	.	32b-'/JJ	.	.	.
.	.	16f'\	.	(32a-/LL	.	8ff'\J	.
.	.	.	.	32b-/)	.	.	.
.	.	16e-'\JJ	.	32g'/	.	.	.
.	.	.	.	32b-'/JJJ	.	.	.
8BB-/L	.	16d'\LL	.	32f'/LLL	.	8r	.
.	.	.	.	32b-'/	.	.	.
.	.	16e-'\	.	32g'/	.	.	.
.	.	.	.	32b-'/JJ	.	.	.
8BB-/J	.	16f'\	.	32a-'/LL	.	8b-\	.
.	.	.	.	32b-'/	.	.	.
.	.	16d'\JJ	.	32f'/	.	.	.
.	.	.	.	32b-'/JJJ	.	.	.
=73	=73	=73	=73	=73	=73	=73	=73
! cresc.	!	! cresc.	!	! cresc.	!	! cresc.	!
[2EE-/	.	2d-\	.	(32e-/LLL	.	(4gg\	.
.	.	.	.	32b-/)	.	.	.
.	.	.	.	32ee-'/	.	.	.
.	.	.	.	32b-'/JJ	.	.	.
.	.	.	.	(32ee-/LL	.	.	.
.	.	.	.	32b-/)	.	.	.
.	.	.	.	32ee-'/	.	.	.
.	.	.	.	32b-'/JJJ	.	.	.
.	.	.	.	(32e-/LLL	.	16.ff\LL)	.
.	.	.	.	32b-/)	.	.	.
.	.	.	.	32ee-'/	.	.	.
.	.	.	.	32b-'/JJ	.	32gg\Jk	.
.	.	.	.	(32e-/LL	.	(16.ggt\L	.
.	.	.	.	32b-/)	.	.	.
.	.	.	.	32ee-'/	.	.	.
.	.	.	.	32b-'/JJJ	.	64ff\LL	.
.	.	.	.	.	.	64gg\JJJJ)	.
=74	=74	=74	=74	=74	=74	=74	=74
2EE-/_	.	2c\	.	(32e-/LLL	.	8aa-'\L	.
.	.	.	.	32a-/)	.	.	.
.	.	.	.	32cc'/	.	.	.
.	.	.	.	32a-'/JJ	.	.	.
.	.	.	.	(32cc/LL	.	8aa-'\J	.
.	.	.	.	32a-/)	.	.	.
.	.	.	.	32cc'/	.	.	.
.	.	.	.	32a-'/JJJ	.	.	.
.	.	.	.	(32e-/LLL	.	8r	.
.	.	.	.	32a-/)	.	.	.
.	.	.	.	32cc'/	.	.	.
.	.	.	.	32a-'/JJ	.	.	.
.	.	.	.	(32e-/LL	.	8ccc\	f
.	.	.	.	32a-/)	.	.	.
.	.	.	.	32cc'/	.	.	.
.	.	.	.	32a-'/JJJ	.	.	.
=75	=75	=75	=75	=75	=75	=75	=75
4.EE-/]	f	4A-/	f	(32f/LLL	f	(8.dd\L	.
.	.	.	.	32a-/)	.	.	.
.	.	.	.	32dd'/	.	.	.
.	.	.	.	32a-'/JJ	.	.	.
.	.	.	.	32f'/LL	.	.	.
.	.	.	.	32a-'/	.	.	.
.	.	.	.	32f'/	.	32ee-\LL	.
.	.	.	.	32d'/JJJ	.	32ff\JJJ)	.
.	.	8G/L	.	8e-/L	.	8ee-\L	.
16G'\LL	p	16B-'/L	p	16e-'/L	p	16b-'\L	p
16G'\JJ	.	16B-'/JJ	.	16e-'/JJ	.	16b-'\JJ	.
=76	=76	=76	=76	=76	=76	=76	=76
16F'\LL	.	16A-'/LL	.	16d'/LL	.	16b-'\LL	.
16r	.	16r	.	16r	.	16r	.
16En'\	.	16G'/	.	16d-'/	.	16b-'\	.
16E'\JJ	.	16G'/JJ	.	16d-'/JJ	.	16b-'\JJ	.
16E-'\LL	.	16G-'/LL	.	16c'/LL	.	16an'/LL	.
16r	.	16r	.	16r	.	16r	.
16D'\	.	16F'/	.	16c-'/	.	16a-'/	.
16D'\JJ	.	16F'/JJ	.	16c-'/JJ	.	16a-'/JJ	.
=77	=77	=77	=77	=77	=77	=77	=77
8E-/L	.	(4.E-/	.	(8B-/L	.	(16a-/LL	.
.	.	.	.	.	.	16g/	.
8AA-/	.	.	.	8cn/J)	.	16f/	.
.	.	.	.	.	.	16cc/JJ)	.
8BB-/	.	.	.	8G/L	.	8e-/L	.
8BB-/J	.	8D/)	.	8A-/J)	.	&(16.f/L)	.
.	.	.	.	.	.	32e-/JJk&)	.
=78	=78	=78	=78	=78	=78	=78	=78
[2EE-/	.	(4E-/	.	(32G/LLL	.	8e-/	.
.	.	.	.	32B-/)	.	.	.
.	.	.	.	32e-'/	.	.	.
.	.	.	.	32B-'/JJ	.	.	.
.	.	.	.	(32G/LL	.	8r	.
.	.	.	.	32B-/)	.	.	.
.	.	.	.	32e-'/	.	.	.
.	.	.	.	32B-'/JJJ	.	.	.
.	.	4D/)	.	(32A-/LLL	.	16f/LL	.
.	.	.	.	32B-/	.	.	.
.	.	.	.	32A-/	.	16f/J	.
.	.	.	.	32B-/JJ)	.	.	.
.	.	.	.	(32A-/LL	.	(16.fT/L	.
.	.	.	.	32B-/	.	.	.
.	.	.	.	32A-/	.	.	.
.	.	.	.	32B-/JJJ)	.	64e-/LL	.
.	.	.	.	.	.	64f/JJJJ)	.
=79	=79	=79	=79	=79	=79	=79	=79
2EE-/_	.	(4E-/	.	(32G/LLL	.	(8b-/L	.
.	.	.	.	32B-/)	.	.	.
.	.	.	.	32e-'/	.	.	.
.	.	.	.	32B-'/JJ	.	.	.
.	.	.	.	(32G/LL	.	16g/L	.
.	.	.	.	32B-/)	.	.	.
.	.	.	.	32e-'/	.	16e-/JJ)	.
.	.	.	.	32B-'/JJJ	.	.	.
.	.	4D/)	.	(32A-/LLL	.	16f/LL	.
.	.	.	.	32B-/	.	.	.
.	.	.	.	32A-/	.	16f/J	.
.	.	.	.	32B-/JJ)	.	.	.
.	.	.	.	(32A-/LL	.	&(32f/LL)	.
.	.	.	.	32B-/	.	32e-/	.
.	.	.	.	32A-/	.	32f/	.
.	.	.	.	32B-/JJJ)	.	32g/JJJ&)	.
=80	=80	=80	=80	=80	=80	=80	=80
2EE-/_	pp	(4E-/	pp	(32G/LLL	pp	8e-/	.
.	.	.	.	32B-/)	.	.	.
.	.	.	.	32e-'/	.	.	.
.	.	.	.	32B-'/JJ	.	.	.
.	.	.	.	(32G/LL	.	8r	.
.	.	.	.	32B-/)	.	.	.
.	.	.	.	32e-'/	.	.	.
.	.	.	.	32B-'/JJJ	.	.	.
.	.	4D/)	.	(32A-/LLL	.	32f'/LLL	pp
.	.	.	.	32B-/	.	32g'/	.
.	.	.	.	32A-/	.	32a-'/	.
.	.	.	.	32B-/JJ)	.	32b-'/JJ	.
.	.	.	.	(32A-/LL	.	32cc'/LL	.
.	.	.	.	32B-/	.	32dd'/	.
.	.	.	.	32A-/	.	32ee-'/	.
.	.	.	.	32B-/JJJ)	.	32ff'/JJJ	.
=81	=81	=81	=81	=81	=81	=81	=81
2EE-/]	.	(4E-/	.	(32G/LLL	.	(16gg\LL	.
.	.	.	.	32B-/)	.	.	.
.	.	.	.	32e-'/	.	16ee-\)	.
.	.	.	.	32B-'/JJ	.	.	.
.	.	.	.	(32G/LL	.	16b-'\	.
.	.	.	.	32B-/)	.	.	.
.	.	.	.	32e-'/	.	16g'\JJ	.
.	.	.	.	32B-'/JJJ	.	.	.
.	.	4D/)	.	(32A-/LLL	.	(32f/LLL	.
.	.	.	.	32B-/	.	32cc/	.
.	.	.	.	32A-/	.	32b-/	.
.	.	.	.	32B-/JJ)	.	32a-/JJ	.
.	.	.	.	(32A-/LL	.	32g/LL	.
.	.	.	.	32B-/	.	32f/	.
.	.	.	.	32A-/	.	32a-/	.
.	.	.	.	32B-/JJJ)	.	32f/JJJ)	.
=82	=82	=82	=82	=82	=82	=82	=82
8EE-/L	.	8E-/L	.	(32G/LLL	.	8e-/L	.
.	.	.	.	32B-/)	.	.	.
.	.	.	.	32e-'/	.	.	.
.	.	.	.	32B-'/JJ	.	.	.
8EE-/	.	8G/	.	(32G/LL	.	8e-/	.
.	.	.	.	32B-/)	.	.	.
.	.	.	.	32e-'/	.	.	.
.	.	.	.	32B-'/JJJ	.	.	.
8EE-/J	.	8E-/J	.	8G'/	.	8e-/J	.
8r	.	8r	.	8r	.	8r	.
==|!	==|!	==|!	==|!	==|!	==|!	==|!	==|!
*-	*-	*-	*-	*-	*-	*-	*-
!!!RWG: Appoggiaturas of spine 'Violino I' need manual editing in measures: 13, 14, 61, 62
!!!RWG: Key is interpreted using the Humdrum key tool.
!!!GTL: 6 Quators ("Tost I + II")
!!!AFT: stage2
!!!END: 1994/11/09
!!!KEY: 683049028
!!!EMD: Converted from MuseData to Humdrum Dec 16, 2000, by Andreas Kornstaedt using muse2kern.
!!!EMD: Manual editing by Craig Sapp, Nov 2001
